actions/24/database-change-key.svg

<?xml version="1.0" encoding="UTF-8" standalone="no"?>
<svg
   width="24"
   height="24"
   version="1.1"
   id="svg11"
   sodipodi:docname="database-change-key.svg"
   inkscape:version="1.1.2 (0a00cf5339, 2022-02-04)"
   xmlns:inkscape="http://www.inkscape.org/namespaces/inkscape"
   xmlns:sodipodi="http://sodipodi.sourceforge.net/DTD/sodipodi-0.dtd"
   xmlns="http://www.w3.org/2000/svg"
   xmlns:svg="http://www.w3.org/2000/svg">
  <sodipodi:namedview
     id="namedview13"
     pagecolor="#000000"
     bordercolor="#666666"
     borderopacity="1.0"
     inkscape:pageshadow="2"
     inkscape:pageopacity="0"
     inkscape:pagecheckerboard="0"
     showgrid="false"
     inkscape:zoom="56.833333"
     inkscape:cx="12"
     inkscape:cy="11.982405"
     inkscape:window-width="1837"
     inkscape:window-height="967"
     inkscape:window-x="0"
     inkscape:window-y="29"
     inkscape:window-maximized="1"
     inkscape:current-layer="g9" />
  <defs
     id="defs3">
    <style
       id="current-color-scheme"
       type="text/css">
   .ColorScheme-Text { color:#eeeeec; } .ColorScheme-Highlight { color:#367bf0; } .ColorScheme-NeutralText { color:#ffcc44; } .ColorScheme-PositiveText { color:#3db47e; } .ColorScheme-NegativeText { color:#dd4747; }
  </style>
  </defs>
  <g
     transform="translate(4,-2)"
     id="g9">
    <path
       style="fill:currentColor"
       class="ColorScheme-Text"
       d="M 4.5,9 C 2.01,9 0,11.02 0,13.5 c 0,1.221 0.48724,2.323 1.2734,3.133 L 3.3965,14.51 C 3.1525,14.243 3,13.891 3,13.5 3,12.68 3.67,12 4.5,12 c 0.3901,0 0.7414,0.154 1.0078,0.398 L 7.627,10.279 C 6.8046,9.4835 5.6928,9.0063 4.5,9 Z m 9.592,3 -2.509917,2.503242 L 11.557382,15 v 0 H 12 v 2 h 3 v -2 h 1 v -3 z"
       id="path5"
       sodipodi:nodetypes="csccsscccccccccccccc" />
    <path
       style="fill:currentColor"
       class="ColorScheme-Text"
       d="M 2,17.32 V 20 H 4.67 L 11.42,13.25 8.75,10.57 Z M 13.79,10.89 C 14.07,10.61 14.07,10.16 13.79,9.88 L 12.12,8.21 C 11.83,7.93 11.39,7.93 11.11,8.21 L 9.71,9.61 12.38,12.29 Z"
       id="path7" />
  </g>
</svg>

<svg xmlns="http://www.w3.org/2000/svg" width="24" height="24" version="1.1">
 <defs>
  <style id="current-color-scheme" type="text/css">
   .ColorScheme-Text { color:#eeeeec; } .ColorScheme-Highlight { color:#367bf0; } .ColorScheme-NeutralText { color:#ffcc44; } .ColorScheme-PositiveText { color:#3db47e; } .ColorScheme-NegativeText { color:#dd4747; }
  </style>
 </defs>
 <g transform="translate(4,-2)">
  <path style="fill:currentColor" class="ColorScheme-Text" d="M 4.5,9 C 2.01,9 0,11.02 0,13.5 0,14.721 0.48724,15.823 1.2734,16.633 L 3.3965,14.51 C 3.1525,14.243 3,13.891 3,13.5 3,12.68 3.67,12 4.5,12 4.8901,12 5.2414,12.154 5.5078,12.398 L 7.627,10.279 C 6.8046,9.4835 5.6928,9.0063 4.5,9 Z M 14.092,12 11.084,15 H 12 V 17 H 15 V 15 H 16 V 12 Z"/>
  <path style="fill:currentColor" class="ColorScheme-Text" d="M 2,17.32 V 20 H 4.67 L 11.42,13.25 8.75,10.57 Z M 13.79,10.89 C 14.07,10.61 14.07,10.16 13.79,9.88 L 12.12,8.21 C 11.83,7.93 11.39,7.93 11.11,8.21 L 9.71,9.61 12.38,12.29 Z"/>
 </g>
</svg>
